X: 34713
T: Road To Glin, The
R: reel
M: 4/4
K: Edorian
B2 Ad BE E2|B2 Ad Bded|BdAd BE E2|FDAG FDFA|
B2 Ad BE E2|B2 Ad Bded|fded BABc|dBAd BE E2||
e2 Be geBg|e^def gfec|d2 Ad fd d2|BABc dAFB|
e2 Be geBg|e^def gfga|bgaf gfed|(3Bcd ef ge e2||

